!! 00025] TT[TB
!! Eigene Aufnahme
!!!OTL: Fang fengzheng
!!!ARE: Asia, China,Hebei, Nanpi
!! Ethnic Group: Han
!! IV, 73
!!!SCT: C0383
!!!YEM: Copyright 1995, estate of Helmut Schaffrath.
**kern
*ICvox
*Ivox
*M2/4
*k[]
*C:
{8e
8e
16d
16c
16d
16e
=1
4.g
8a
=2
4cc
8ee
16dd
16ee
=3
2cc}
=4
{8.cc
16a
8ee
16gg
16ee
=5
16dd
16ee
16dd
16a
4cc
=6
8gg
16a
16g
16g
16e
16d
16e
=7
2g}
=8
{8dd
16ee
16dd
8cc
16a
16cc
=9
8dd
16ee
16dd
4cc
=10
16e
16d
16e
16g
16a
16g
16a
16cc
=11
8.g
16e
8g
16g
16a}
=12
{8b
16b
16a
8g
8g
=13
8a
16a
16cc
8g
16g
16e
=14
16d
16e
8g
16e
16g
16e
16d
=15
8.c
16A
4c}
=16
{8g
8e
16d
16c
16d
16e
=17
8g
8e
8g
16g
16a}
=18
{8b
16b
16a
8g
8g
=19
8a
16a
16cc
8g
16e
16e
=20
16d
16e
8g
16e
16g
16e
16d
=21
2c}
==
!!!AGN: Tanzlied, Xiaodiao
!! Jian jian hua-Variante im Norden. Auch in Jiangnan zu finden.
!!    Saengerin Huang Bai am 28.4. 87 (wieder erkaeltet)
!!    Vereinzelt Verzierungen, Glissandi.
!!!ONB: ESAC (Essen Associative Code) Database: CHINA_033
!!!AMT: simple duple
!!!AIN: vox
!!!EED: Helmut Schaffrath
!!!EEV: 1.0
*-
